X:32
T:Mn\'a Na h\'Eireann
R:slow air
C:Se\'an \'O Riada (1931-1971)
Z:id:hn-slowair-32
M:4/4
L:1/8
Q:1/4=70
K:G
A A>B | c g4 g a>g | f A3-A2 AB |1 c2 d/c/B/c/ A4- |
A3 :|2 c2 d/c/B/c/ d3 c/A/ | B>d G3 G G>G ||
g6 a>b | a4-a ged | e4-e dcB | A2 g4 g2 |
a3g fd e2- | e2 A2 A2 G>F | G4- G3 ||

